newicons/iss_detector.svg

<svg xmlns="http://www.w3.org/2000/svg" xml:space="preserve" width="48" height="48"><path fill="none" stroke="#fff" stroke-linecap="round" stroke-linejoin="round" d="M22.265 15.644h3.47M24 14.248v16.82m19.5-13.073-4.434 15.756m1.227-15.756-3.621 15.756m.516-15.756-2.81 15.756m-.533-15.756-2.064 15.756m-.115-11.95-5.908-.081m6.15-1.598-6.15.05m5.31 3.297-5.311-.2m6.377-4.881-6.378.24M4.5 17.996l4.434 15.756M7.707 17.996l3.622 15.756m-.517-15.756 2.81 15.756m.533-15.756 2.064 15.756m.115-11.951 5.908-.081m-6.15-1.597 6.15.05m-5.31 3.296 5.311-.2m-6.377-4.881 6.378.24m6.743 10.612h-7.348m-1.014 2.166h6.223m-18.213-4.38h30.73"/></svg>

<?xml version="1.0" encoding="UTF-8"?><svg id="a" xmlns="http://www.w3.org/2000/svg" viewBox="0 0 48 48"><defs><style>.b{fill:none;stroke:#fff;stroke-linecap:round;stroke-linejoin:round;}</style></defs><path class="b" d="M22.265,15.644h3.47M24,14.248v16.82M43.5,17.995l-4.434,15.756M40.293,17.995l-3.621,15.756M37.188,17.995l-2.81,15.756M33.845,17.995l-2.064,15.756M31.666,21.801l-5.908-.081M31.908,20.122l-6.15.05M31.068,23.469l-5.311-.2M32.134,18.388l-6.378.24M4.5,17.996l4.434,15.756M7.707,17.996l3.622,15.756M10.812,17.996l2.81,15.756M14.155,17.996l2.064,15.756M16.334,21.801l5.908-.081M16.092,20.123l6.15.05M16.932,23.469l5.311-.2M15.866,18.388l6.378.24M28.987,29.24h-7.348M20.625,31.406h6.223M8.635,27.026h30.73"/></svg>
